img/icon-parent.svg

<svg width="110" height="110" viewBox="0 0 110 110" fill="none" xmlns="http://www.w3.org/2000/svg">
<g filter="url(#filter0_d_587_2120)">
<path fill-rule="evenodd" clip-rule="evenodd" d="M35.0279 15.1562C33.965 15.4732 33.2312 15.8785 32.4679 16.5703C31.708 17.2589 30.8843 18.4851 30.7191 19.174C30.6607 19.4177 30.5756 19.617 30.5299 19.617C30.4844 19.617 30.135 19.3209 29.7535 18.9589C28.2178 17.5014 26.0347 16.9127 24.0787 17.4287C19.4187 18.6578 17.7308 24.3232 20.9239 28.0183C21.2802 28.4307 21.5717 28.8035 21.5717 28.8466C21.5717 28.89 21.3781 28.9746 21.1414 29.0346C19.9954 29.3261 18.4409 30.7527 17.762 32.136C16.6155 34.4719 16.9175 37.0906 18.5778 39.2119L19.3409 40.1868L18.3964 40.6485C17.214 41.2266 16.1029 42.3572 15.5239 43.571C15.1092 44.4405 15.0782 44.6396 15.0782 46.4385C15.0782 49.3401 15.0216 49.2512 20.3244 54.6851L24.6962 59.1647L24.003 60.9367C23.2257 62.9234 22.7317 65.1822 22.576 67.4609C22.5047 68.5057 22.3806 69.1446 22.1853 69.4745C22.0279 69.7403 20.3468 71.5519 18.4496 73.5003L15 77.043V77.77V78.4968L22.0381 85.7416C28.9795 92.8866 29.0849 92.9865 29.7042 92.9865C30.314 92.9865 30.4371 92.879 33.971 89.2643C35.9722 87.2172 37.7504 85.4703 37.9225 85.3825C38.0947 85.2945 39.186 85.1734 40.3478 85.1133C44.1913 84.914 47.9406 84.175 51.1231 82.9889L52.5914 82.4416L53.9409 82.9181C55.7247 83.548 58.565 84.2948 60.3901 84.6141C63.2829 85.1199 62.9022 84.8485 67.9644 90.0156C70.46 92.5631 72.6678 94.7349 72.8704 94.8421C73.7776 95.3215 73.6678 95.4215 84.6132 84.1479L95 73.4497L94.9107 72.7635C94.8265 72.1178 94.5533 71.8005 90.2869 67.3929C87.4345 64.446 85.6316 62.4582 85.4265 62.0332C85.247 61.6616 84.9188 60.4655 84.6969 59.3752C83.6584 54.2706 83.0692 52.2686 78.3039 37.6531C74.4002 25.6799 74.3772 25.6253 72.6974 24.3521C71.4633 23.4168 70.4467 23.0803 68.9032 23.0957C68.0008 23.1047 67.3988 23.2093 66.7463 23.4704C65.4844 23.9754 64.124 25.3057 63.4688 26.6756C62.7412 28.1963 62.7346 29.2679 63.4171 35.0617C63.7236 37.6644 63.9745 39.9094 63.9745 40.0505C63.9745 40.1916 62.5135 38.8141 60.7277 36.9893C58.942 35.1646 57.3152 33.5837 57.1126 33.4759C55.8341 32.7967 54.3981 34.5282 55.1799 35.8066C55.3424 36.0724 57.7333 38.5553 60.4927 41.3239C65.2229 46.0698 65.543 46.358 66.0825 46.358C66.8197 46.358 67.1993 46.1413 67.4954 45.5516C67.7159 45.1126 67.6679 44.51 66.8571 37.5422C66.3499 33.1829 66.007 29.6179 66.0434 29.0835C66.1196 27.9658 66.6788 27.1384 67.7328 26.5841C68.942 25.9481 70.0975 26.1965 71.189 27.3272L71.91 28.0742L75.9134 40.4782C79.9188 52.8886 80.6375 55.3162 81.4214 59.0841C81.6519 60.1916 81.9459 61.4934 82.0747 61.9769C82.57 63.8368 82.9185 64.2966 87.1464 68.6713L91.1966 72.8619L82.3707 81.9474L73.5448 91.0331L69.6245 87.1001C65.0567 82.5173 64.5534 82.1657 61.7839 81.6202C59.3242 81.1357 57.2463 80.6331 57.2463 80.5224C57.2463 80.4683 57.6021 80.2502 58.0371 80.0375C58.4721 79.825 59.1362 79.2983 59.5126 78.8672C61.7775 76.2735 60.7772 72.0671 57.605 70.845C56.904 70.5751 56.3851 70.5216 54.4661 70.5216H52.1668L57.896 64.6015C63.2065 59.1141 63.6449 58.6186 63.895 57.8222C64.2639 56.6475 64.1664 55.0701 63.6612 54.0372C63.2683 53.2338 62.3621 52.2747 61.7046 51.9664C61.3397 51.7951 61.3361 51.776 61.58 51.2904C61.9723 50.5095 62.0305 48.8145 61.7002 47.7907C61.3143 46.595 59.9891 45.2305 58.8276 44.8333C57.837 44.4947 56.1877 44.5527 55.4362 44.9528C54.9588 45.207 54.9581 45.2068 54.6609 44.6385C54.2298 43.8144 53.1171 42.8725 52.2067 42.5613C51.2305 42.2273 49.4395 42.3093 48.6406 42.7244C48.3394 42.8809 47.6488 43.4543 47.106 43.9988C46.1529 44.9546 46.111 44.9776 45.8902 44.6665C45.3725 43.937 44.4657 43.0867 43.8735 42.7753C43.0772 42.3567 41.381 42.2165 40.4296 42.4909L39.7252 42.6938L31.47 34.2749C26.9294 29.6445 23.0603 25.5995 22.8717 25.2861C22.1556 24.0958 22.2756 22.6645 23.1808 21.6032C23.747 20.9392 24.7084 20.4308 25.4051 20.4269C26.7675 20.4192 26.8216 20.4645 32.9938 26.7607C46.267 40.3007 45.538 39.5922 46.1966 39.5922C47.0573 39.5922 47.6994 38.896 47.7082 37.9534L47.7148 37.2564L40.8296 30.2489C36.0528 25.3872 33.8708 23.0582 33.7039 22.6426C32.6951 20.1323 34.9334 17.6103 37.5329 18.3279C38.1532 18.499 38.7396 19.0374 42.5384 22.9229C45.3232 25.7713 46.9941 27.3632 47.2745 27.4353C47.7996 27.5705 48.5664 27.271 48.8816 26.808C49.0072 26.6233 49.11 26.1832 49.11 25.8301C49.11 25.2044 48.9983 25.0725 44.768 20.7026C40.8954 16.7022 40.3057 16.1559 39.3128 15.6482C38.3924 15.1776 37.9858 15.0674 36.9657 15.0127C36.221 14.9726 35.4529 15.0296 35.0279 15.1562ZM51.3564 28.9589C50.5642 29.288 50.2474 30.6207 50.7955 31.3175C51.4426 32.14 52.3182 32.2316 53.0547 31.5541C54.3709 30.3435 53.0142 28.2701 51.3564 28.9589ZM24.4901 32.1013C24.8475 32.2552 27.2918 34.6052 31.222 38.5739L37.3927 44.8052L35.1556 47.1127L32.9184 49.42L26.7741 43.0966C20.0854 36.2128 20.0253 36.1354 20.221 34.6387C20.4884 32.5928 22.6483 31.3091 24.4901 32.1013ZM22.5105 43.733C23.1884 44.0629 24.1506 44.948 27.0465 47.9054L30.7219 51.6592L28.9953 53.4788C28.0455 54.4797 27.0728 55.5463 26.8335 55.849L26.3984 56.3994L22.4825 52.3855C19.9901 49.8309 18.4598 48.1374 18.2732 47.7273C17.5473 46.1331 18.2789 44.2369 19.9287 43.4361C20.6815 43.0706 21.2942 43.141 22.5105 43.733ZM42.8633 46.0234C43.3933 46.569 43.4725 47.3402 43.0633 47.9732C42.9219 48.1923 41.232 50.0062 39.3081 52.0042C36.442 54.9805 35.8102 55.7172 35.8102 56.0824C35.8102 57.3455 37.0045 58.1635 38.0502 57.6166C38.2381 57.5184 40.9993 54.7637 44.1861 51.4952C49.8701 45.6655 49.9922 45.5525 50.6055 45.5525C50.9496 45.5525 51.3777 45.6584 51.5572 45.7877C52.0054 46.111 52.2974 46.9015 52.1682 47.4423C52.0974 47.7379 50.0912 49.9265 46.2219 53.9292C43.0101 57.2517 40.3342 60.1345 40.2754 60.3352C40.1314 60.8273 40.4511 61.766 40.864 62.0638C41.0486 62.1971 41.4816 62.306 41.8258 62.306C42.4421 62.306 42.5593 62.1958 49.3406 55.2355C53.1293 51.3466 56.3831 48.0846 56.571 47.9865C57.9051 47.2893 59.3147 48.7405 58.6375 50.114C58.5422 50.3074 55.3737 53.6573 51.5964 57.558C44.9641 64.4074 44.7289 64.6711 44.7289 65.2607C44.7289 66.0837 44.9614 66.4761 45.6154 66.7575C46.0343 66.9376 46.2811 66.9537 46.6591 66.8252C46.9902 66.7128 49.0712 64.6828 52.9428 60.6957C59.1529 54.3004 59.1922 54.2685 60.1956 54.8027C60.7946 55.1215 61.0016 55.5034 61.0016 56.2889C61.0016 56.8767 60.7584 57.1485 53.9605 64.1585C47.1626 71.1685 46.9195 71.4403 46.9195 72.0281C46.9195 72.8049 47.1261 73.1952 47.6987 73.5001C48.072 73.6989 48.903 73.7434 52.2394 73.7434C56.6687 73.7434 56.9689 73.7946 57.4005 74.625C57.5222 74.8591 57.6219 75.2998 57.6219 75.6043C57.6219 76.6029 57.1889 76.9539 54.5009 78.1342C48.4948 80.7716 45.1922 81.6165 39.6437 81.935C37.6832 82.0476 37.1807 82.1301 36.5926 82.4353C36.1524 82.6638 34.7294 83.9854 32.7957 85.9613L29.7031 89.1219L24.1944 83.4504L18.6856 77.779L21.8276 74.5128C25.4522 70.7449 25.5267 70.6163 25.6965 67.833C25.854 65.2517 26.4492 62.8678 27.4387 60.8561C28.5348 58.6276 29.4119 57.5825 35.2459 51.5527L41.0519 45.5516L41.7289 45.5521C42.2683 45.5524 42.4989 45.6484 42.8633 46.0234Z" fill="#06FF79"/>
</g>
<defs>
<filter id="filter0_d_587_2120" x="0" y="0" width="110" height="110" filterUnits="userSpaceOnUse" color-interpolation-filters="sRGB">
<feFlood flood-opacity="0" result="BackgroundImageFix"/>
<feColorMatrix in="SourceAlpha" type="matrix" values="0 0 0 0 0 0 0 0 0 0 0 0 0 0 0 0 0 0 127 0" result="hardAlpha"/>
<feOffset/>
<feGaussianBlur stdDeviation="7.5"/>
<feComposite in2="hardAlpha" operator="out"/>
<feColorMatrix type="matrix" values="0 0 0 0 0.0463889 0 0 0 0 0.695833 0 0 0 0 0.346333 0 0 0 0.8 0"/>
<feBlend mode="normal" in2="BackgroundImageFix" result="effect1_dropShadow_587_2120"/>
<feBlend mode="normal" in="SourceGraphic" in2="effect1_dropShadow_587_2120" result="shape"/>
</filter>
</defs>
</svg>

<svg width="110" height="110" fill="none" xmlns="http://www.w3.org/2000/svg"><g filter="url(#filter0_d_587_2120)"><path fill-rule="evenodd" clip-rule="evenodd" d="M35.028 15.156c-1.063.317-1.797.723-2.56 1.414-.76.689-1.584 1.915-1.749 2.604-.058.244-.143.443-.19.443-.045 0-.394-.296-.776-.658-1.535-1.458-3.718-2.046-5.674-1.53-4.66 1.229-6.348 6.894-3.155 10.59.356.412.648.785.648.828 0 .043-.194.128-.43.188-1.147.291-2.701 1.718-3.38 3.101-1.146 2.336-.845 4.955.816 7.076l.763.975-.945.462c-1.182.578-2.293 1.708-2.872 2.922-.415.87-.446 1.069-.446 2.867 0 2.902-.056 2.813 5.246 8.247l4.372 4.48-.693 1.772c-.777 1.986-1.271 4.245-1.427 6.524-.071 1.045-.195 1.684-.39 2.014-.158.265-1.84 2.077-3.736 4.025L15 77.043v1.454l7.038 7.245c6.942 7.145 7.047 7.245 7.666 7.245.61 0 .733-.108 4.267-3.723 2.001-2.047 3.78-3.794 3.952-3.882.172-.088 1.263-.209 2.425-.269 3.843-.199 7.593-.938 10.775-2.124l1.468-.547 1.35.476c1.784.63 4.624 1.377 6.45 1.696 2.892.506 2.511.234 7.573 5.402 2.496 2.547 4.704 4.719 4.906 4.826.908.48.798.58 11.743-10.694L95 73.45l-.09-.687c-.084-.645-.357-.963-4.623-5.37-2.853-2.947-4.655-4.935-4.86-5.36-.18-.371-.508-1.568-.73-2.658-1.039-5.104-1.628-7.106-6.393-21.722-3.904-11.973-3.927-12.028-5.607-13.3-1.234-.936-2.25-1.273-3.794-1.257-.902.009-1.504.113-2.157.374-1.262.505-2.622 1.836-3.277 3.206-.728 1.52-.734 2.592-.052 8.386.307 2.602.557 4.847.557 4.989 0 .14-1.46-1.237-3.246-3.062-1.786-1.824-3.413-3.405-3.615-3.513-1.279-.68-2.715 1.052-1.933 2.33.162.266 2.553 2.75 5.313 5.518 4.73 4.746 5.05 5.034 5.59 5.034.737 0 1.116-.217 1.412-.806.22-.44.173-1.042-.638-8.01-.507-4.36-.85-7.924-.814-8.459.077-1.117.636-1.945 1.69-2.499 1.209-.636 2.364-.387 3.456.743l.721.747 4.003 12.404c4.006 12.41 4.725 14.838 5.508 18.606.23 1.108.525 2.41.654 2.893.495 1.86.843 2.32 5.071 6.694l4.05 4.19-8.825 9.086-8.826 9.086-3.92-3.933c-4.568-4.583-5.072-4.934-7.841-5.48-2.46-.484-4.538-.987-4.538-1.098 0-.054.356-.272.791-.485.435-.212 1.1-.739 1.476-1.17 2.265-2.594 1.264-6.8-1.908-8.022-.701-.27-1.22-.323-3.139-.323h-2.3l5.73-5.92c5.31-5.488 5.749-5.983 5.999-6.78.369-1.175.271-2.752-.234-3.785-.393-.803-1.299-1.762-1.956-2.07-.365-.172-.369-.191-.125-.677.392-.78.45-2.475.12-3.5-.386-1.195-1.71-2.56-2.872-2.957-.991-.338-2.64-.28-3.392.12-.477.254-.478.254-.775-.315-.431-.824-1.544-1.765-2.454-2.077-.977-.334-2.767-.252-3.566.163-.302.157-.992.73-1.535 1.275-.953.956-.995.979-1.216.667-.517-.729-1.424-1.58-2.017-1.89-.796-.42-2.492-.56-3.443-.285l-.705.203-8.255-8.42c-4.54-4.63-8.41-8.675-8.598-8.988-.716-1.19-.596-2.622.309-3.683.566-.664 1.527-1.172 2.224-1.176 1.362-.008 1.417.038 7.589 6.334C46.267 40.3 45.538 39.592 46.197 39.592c.86 0 1.502-.696 1.511-1.639l.007-.697-6.885-7.007c-4.777-4.862-6.96-7.19-7.126-7.606-1.009-2.51 1.23-5.033 3.829-4.315.62.171 1.207.71 5.005 4.595 2.785 2.848 4.456 4.44 4.737 4.512.525.136 1.291-.164 1.607-.627.125-.185.228-.625.228-.978 0-.626-.112-.757-4.342-5.127-3.873-4-4.462-4.547-5.455-5.055-.92-.47-1.327-.58-2.347-.635-.745-.04-1.513.017-1.938.143zM51.356 28.96c-.792.329-1.109 1.662-.56 2.358.647.823 1.522.915 2.259.237 1.316-1.21-.04-3.284-1.699-2.595zM24.49 32.1c.358.154 2.802 2.504 6.732 6.473l6.17 6.231-2.236 2.308-2.238 2.307-6.144-6.323c-6.689-6.884-6.749-6.962-6.553-8.458.267-2.046 2.427-3.33 4.27-2.538zm-1.98 11.632c.678.33 1.64 1.215 4.537 4.172l3.675 3.754-1.727 1.82c-.95 1-1.922 2.067-2.162 2.37l-.435.55-3.915-4.014c-2.493-2.554-4.023-4.248-4.21-4.658-.726-1.594.006-3.49 1.656-4.29.753-.366 1.365-.296 2.582.296zm20.353 2.29c.53.546.61 1.317.2 1.95-.141.22-1.831 2.033-3.755 4.031-2.866 2.977-3.498 3.713-3.498 4.078 0 1.264 1.194 2.081 2.24 1.535.188-.099 2.95-2.853 6.136-6.122 5.684-5.83 5.806-5.942 6.42-5.942.344 0 .772.105.951.235.448.323.74 1.114.611 1.654-.07.296-2.077 2.484-5.946 6.487-3.212 3.323-5.888 6.206-5.947 6.406-.144.492.176 1.431.589 1.729.185.133.618.242.962.242.616 0 .733-.11 7.515-7.07 3.788-3.89 7.042-7.151 7.23-7.25 1.334-.697 2.744.755 2.067 2.128-.096.193-3.264 3.543-7.042 7.444-6.632 6.85-6.867 7.113-6.867 7.703 0 .823.232 1.215.886 1.496.42.18.666.197 1.044.068.331-.112 2.412-2.142 6.284-6.13 6.21-6.395 6.25-6.426 7.253-5.892.599.319.806.7.806 1.486 0 .588-.244.86-7.041 7.87-6.798 7.01-7.041 7.281-7.041 7.87 0 .776.206 1.166.779 1.471.373.199 1.204.243 4.54.243 4.43 0 4.73.052 5.162.882.121.234.22.675.22.98 0 .998-.432 1.349-3.12 2.53-6.006 2.637-9.309 3.481-14.857 3.8-1.96.113-2.463.195-3.051.5-.44.229-1.864 1.55-3.797 3.526l-3.093 3.16-5.509-5.67-5.508-5.672 3.142-3.266c3.624-3.768 3.699-3.897 3.869-6.68.157-2.581.752-4.965 1.742-6.977 1.096-2.228 1.973-3.273 7.807-9.303l5.806-6.001h.677c.54 0 .77.096 1.134.471z" fill="#06FF79"/></g><defs><filter id="filter0_d_587_2120" x="0" y="0" width="110" height="110" filterUnits="userSpaceOnUse" color-interpolation-filters="sRGB"><feFlood flood-opacity="0" result="BackgroundImageFix"/><feColorMatrix in="SourceAlpha" values="0 0 0 0 0 0 0 0 0 0 0 0 0 0 0 0 0 0 127 0" result="hardAlpha"/><feOffset/><feGaussianBlur stdDeviation="7.5"/><feComposite in2="hardAlpha" operator="out"/><feColorMatrix values="0 0 0 0 0.0463889 0 0 0 0 0.695833 0 0 0 0 0.346333 0 0 0 0.8 0"/><feBlend in2="BackgroundImageFix" result="effect1_dropShadow_587_2120"/><feBlend in="SourceGraphic" in2="effect1_dropShadow_587_2120" result="shape"/></filter></defs></svg>
